dealnox/img/Logo.svg

<svg width="213" height="42" viewBox="0 0 213 42" fill="none" xmlns="http://www.w3.org/2000/svg">
<g clip-path="url(#clip0_1_6)">
<path d="M42.2006 10.9111H53.0927C55.3966 10.8666 57.6846 11.2907 59.8094 12.1561C61.6404 12.8817 63.2164 14.1052 64.3478 15.6796C65.4067 17.2746 65.9699 19.1319 65.9699 21.0294C65.9699 22.9269 65.4067 24.7842 64.3478 26.3792C63.2119 27.9495 61.6373 29.172 59.8094 29.9027C57.6846 30.7681 55.3966 31.1922 53.0927 31.1477H42.2006V10.9111ZM52.8385 26.5906C54.5562 26.6723 56.2462 26.1465 57.5947 25.1108C58.1607 24.5835 58.6109 23.9508 58.9186 23.2504C59.2262 22.5501 59.3847 21.7966 59.3847 21.0353C59.3847 20.274 59.2262 19.5205 58.9186 18.8201C58.6109 18.1198 58.1607 17.487 57.5947 16.9598C56.2462 15.924 54.5562 15.3982 52.8385 15.4799H48.7238V26.5906H52.8385Z" fill="white"/>
<path d="M87.8383 26.7316V31.1594H69.3339V10.9111H87.4026V15.292H75.7844V18.6981H86.0229V22.9849H75.7844V26.6846L87.8383 26.7316Z" fill="white"/>
<path d="M106.887 27.2248H97.1449L95.3417 31.1594H88.6855L98.8635 10.9111H105.278L115.48 31.1594H108.763L106.887 27.2248ZM104.987 22.9967L102.022 16.5252L99.0813 22.9967H104.987Z" fill="white"/>
<path d="M117.319 10.9111H123.843V26.6141H134.831V31.1594H117.319V10.9111Z" fill="white"/>
<path d="M159.314 10.9111V31.1594H153.953L143.787 20.3658V31.1594H137.397V10.9111H142.758L152.936 21.693V10.9111H159.314Z" fill="white"/>
<path d="M168.972 30.2081C167.126 29.3729 165.546 28.0705 164.397 26.4379C163.315 24.8297 162.738 22.9503 162.738 21.0294C162.738 19.1084 163.315 17.2291 164.397 15.6208C165.546 13.9918 167.127 12.6934 168.972 11.8624C171.037 10.9646 173.274 10.5005 175.537 10.5005C177.8 10.5005 180.038 10.9646 182.103 11.8624C183.952 12.6869 185.534 13.9866 186.678 15.6208C187.768 17.2263 188.348 19.1067 188.348 21.0294C188.348 22.952 187.768 24.8324 186.678 26.4379C185.535 28.0757 183.953 29.3794 182.103 30.2081C180.036 31.0987 177.799 31.5588 175.537 31.5588C173.276 31.5588 171.039 31.0987 168.972 30.2081ZM178.654 26.0973C179.582 25.632 180.357 24.9241 180.893 24.0537C181.451 23.1414 181.736 22.0961 181.716 21.0353C181.734 19.9709 181.449 18.9223 180.893 18.005C180.353 17.1405 179.579 16.4374 178.654 15.9732C177.674 15.4941 176.592 15.2445 175.495 15.2445C174.398 15.2445 173.316 15.4941 172.336 15.9732C171.411 16.4374 170.637 17.1405 170.097 18.005C169.541 18.9223 169.256 19.9709 169.274 21.0353C169.254 22.0961 169.539 23.1414 170.097 24.0537C170.633 24.9241 171.408 25.632 172.336 26.0973C173.319 26.5685 174.399 26.8136 175.495 26.8136C176.591 26.8136 177.672 26.5685 178.654 26.0973Z" fill="white"/>
<path d="M205.497 31.1594L200.74 24.8758L196.033 31.1594H188.638L197.025 20.9178L189.001 10.9111H196.335L200.946 16.7836L205.484 10.9111H212.528L204.504 20.683L213.061 31.1594H205.497Z" fill="white"/>
<path d="M0.145227 25.146V6.28356L8.38688 0L35.7743 14.5755V25.4279L0.145227 42L0 30.7131L24.4345 19.8607L10.0086 11.5688V20.4245L0.145227 25.146Z" fill="#019CFE"/>
</g>
<defs>
<clipPath id="clip0_1_6">
<rect width="213" height="42" fill="white"/>
</clipPath>
</defs>
</svg>

<svg width="213" height="42" fill="none" xmlns="http://www.w3.org/2000/svg"><g clip-path="url(#clip0_1_6)"><path d="M42.2 10.911h10.893c2.304-.044 4.592.38 6.716 1.245a10.214 10.214 0 0 1 4.539 3.524 9.667 9.667 0 0 1 1.622 5.35 9.667 9.667 0 0 1-1.622 5.35 10.322 10.322 0 0 1-4.539 3.523 16.948 16.948 0 0 1-6.716 1.245H42.2V10.91zm10.639 15.68a7.25 7.25 0 0 0 4.756-1.48 5.65 5.65 0 0 0 1.324-1.86 5.506 5.506 0 0 0 0-4.43 5.65 5.65 0 0 0-1.324-1.861 7.249 7.249 0 0 0-4.756-1.48h-4.115v11.11h4.115zM87.838 26.732v4.427H69.334V10.911h18.069v4.381H75.784v3.406h10.239v4.287H75.784v3.7l12.054.047zM106.887 27.225h-9.742l-1.803 3.934h-6.656l10.177-20.248h6.415L115.48 31.16h-6.717l-1.876-3.934zm-1.9-4.228l-2.965-6.472-2.94 6.472h5.905zM117.319 10.911h6.524v15.703h10.988v4.545h-17.512V10.911zM159.314 10.911V31.16h-5.361l-10.166-10.793v10.793h-6.39V10.911h5.361l10.178 10.782V10.911h6.378zM168.972 30.208a11.264 11.264 0 0 1-4.575-3.77 9.684 9.684 0 0 1-1.659-5.409c0-1.92.577-3.8 1.659-5.408a11.239 11.239 0 0 1 4.575-3.759 16.472 16.472 0 0 1 6.565-1.361c2.263 0 4.501.464 6.566 1.361a11.09 11.09 0 0 1 4.575 3.759 9.622 9.622 0 0 1 1.67 5.408c0 1.923-.58 3.803-1.67 5.409a11.109 11.109 0 0 1-4.575 3.77 16.602 16.602 0 0 1-6.566 1.35 16.6 16.6 0 0 1-6.565-1.35zm9.682-4.11a5.542 5.542 0 0 0 2.239-2.044 5.58 5.58 0 0 0 .823-3.019 5.658 5.658 0 0 0-.823-3.03 5.593 5.593 0 0 0-2.239-2.032 7.197 7.197 0 0 0-3.159-.729c-1.097 0-2.179.25-3.159.73a5.593 5.593 0 0 0-2.239 2.031 5.658 5.658 0 0 0-.823 3.03 5.58 5.58 0 0 0 .823 3.019 5.542 5.542 0 0 0 2.239 2.043 7.31 7.31 0 0 0 3.159.717 7.306 7.306 0 0 0 3.159-.717zM205.497 31.16l-4.757-6.284-4.707 6.283h-7.395l8.387-10.241-8.024-10.007h7.334l4.611 5.873 4.538-5.873h7.044l-8.024 9.772 8.557 10.476h-7.564z" fill="#fff"/><path d="M.145 25.146V6.284L8.387 0l27.387 14.575v10.853L.145 42 0 30.713l24.434-10.852-14.425-8.292v8.855L.145 25.146z" fill="#019CFE"/></g><defs><clipPath id="clip0_1_6"><path fill="#fff" d="M0 0h213v42H0z"/></clipPath></defs></svg>
